tb/clover.svg

<svg xmlns="http://www.w3.org/2000/svg" class="icon icon-tabler icon-tabler-clover" viewBox="0 0 24 24" stroke-width="2" stroke="currentColor" fill="none" stroke-linecap="round" stroke-linejoin="round" height="1em" width="1em">
  <path stroke="none" d="M0 0h24v24H0z" fill="none"/>
  <path d="M12 10l-3.397 -3.44a2.104 2.104 0 0 1 0 -2.95a2.04 2.04 0 0 1 2.912 0l.485 .39l.485 -.39a2.04 2.04 0 0 1 2.912 0a2.104 2.104 0 0 1 0 2.95l-3.397 3.44z"/>
  <path d="M12 14l-3.397 3.44a2.104 2.104 0 0 0 0 2.95a2.04 2.04 0 0 0 2.912 0l.485 -.39l.485 .39a2.04 2.04 0 0 0 2.912 0a2.104 2.104 0 0 0 0 -2.95l-3.397 -3.44z"/>
  <path d="M14 12l3.44 -3.397a2.104 2.104 0 0 1 2.95 0a2.04 2.04 0 0 1 0 2.912l-.39 .485l.39 .485a2.04 2.04 0 0 1 0 2.912a2.104 2.104 0 0 1 -2.95 0l-3.44 -3.397z"/>
  <path d="M10 12l-3.44 -3.397a2.104 2.104 0 0 0 -2.95 0a2.04 2.04 0 0 0 0 2.912l.39 .485l-.39 .485a2.04 2.04 0 0 0 0 2.912a2.104 2.104 0 0 0 2.95 0l3.44 -3.397z"/>
</svg>

<svg xmlns="http://www.w3.org/2000/svg" class="icon icon-tabler icon-tabler-clover" viewBox="0 0 24 24" stroke-width="2" stroke="currentColor" fill="none" stroke-linecap="round" stroke-linejoin="round" height="1em" width="1em">
  <path d="M0 0h24v24H0z" stroke="none"/>
  <path d="M12 10 8.603 6.56a2.104 2.104 0 0 1 0-2.95 2.04 2.04 0 0 1 2.912 0L12 4l.485-.39a2.04 2.04 0 0 1 2.912 0 2.104 2.104 0 0 1 0 2.95L12 10zm0 4-3.397 3.44a2.104 2.104 0 0 0 0 2.95 2.04 2.04 0 0 0 2.912 0L12 20l.485.39a2.04 2.04 0 0 0 2.912 0 2.104 2.104 0 0 0 0-2.95L12 14zm2-2 3.44-3.397a2.104 2.104 0 0 1 2.95 0 2.04 2.04 0 0 1 0 2.912L20 12l.39.485a2.04 2.04 0 0 1 0 2.912 2.104 2.104 0 0 1-2.95 0L14 12zm-4 0L6.56 8.603a2.104 2.104 0 0 0-2.95 0 2.04 2.04 0 0 0 0 2.912L4 12l-.39.485a2.04 2.04 0 0 0 0 2.912 2.104 2.104 0 0 0 2.95 0L10 12z"/>
</svg>
